ZUCCAL
CUT["Kuhreigen"
    UNSERN AETTI]
REG[Europa, Mitteleuropa, Entlebug]
KEY[Z1305  16  C 3/8]
MEL[1__2-7  1__2-7  1__2-7  1__-5_
    5_3_1_  2_-7_-5_  5_3_1_  2_-7_-5_
    3__3_  4#__4#_  5__4#5  -5__5_  -5-5-5-5-55
    2__3_  4_2_-7_  1_3_4_  5_3_1_
    2__3_  4_2_-7_  1_3_4_  5_3_1_
    1_1_1_  1__1_  6_4_6_  5__.
    4_2_4_  3_5_3_  2_1_-7_  1__+1_  11111+1 //] >>
FCT[Handwerker -, Bauern - Lied]
